src/images/Pills_Bottom-01.svg

<svg width="68" height="71" viewBox="0 0 68 71" fill="none" xmlns="http://www.w3.org/2000/svg">
<g clip-path="url(#clip0)">
<path d="M52.5087 31.183C58.2969 32.5196 64.0748 28.9014 65.4141 23.1015C66.7534 17.3016 63.1469 11.5164 57.3588 10.1798C51.5706 8.84317 45.7927 12.4614 44.4534 18.2613C43.1141 24.0611 46.7206 29.8464 52.5087 31.183Z" fill="#F3C74A"/>
<g opacity="0.53">
<g style="mix-blend-mode:multiply" opacity="0.53">
<path d="M64.034 14.8768C65.1828 17.359 65.3454 20.1869 64.489 22.7867C63.6325 25.3864 61.8211 27.5632 59.4223 28.8752C57.0235 30.1872 54.2172 30.5361 51.5727 29.8512C48.9283 29.1663 46.644 27.4988 45.1833 25.1872C45.8021 26.5242 46.6883 27.7196 47.787 28.6993C48.8857 29.6791 50.1735 30.4224 51.5709 30.8834C52.9683 31.3443 54.4455 31.513 55.9111 31.3791C57.3767 31.2451 58.7995 30.8114 60.0916 30.1047C61.3837 29.398 62.5175 28.4333 63.423 27.2704C64.3285 26.1075 64.9863 24.771 65.3559 23.3437C65.7254 21.9164 65.7987 20.4285 65.5714 18.9722C65.344 17.5158 64.8207 16.122 64.034 14.8768Z" fill="#F3C74A"/>
</g>
</g>
<g style="mix-blend-mode:multiply" opacity="0.58">
<g style="mix-blend-mode:multiply" opacity="0.58">
<path d="M47.8388 12.7242L60.5121 29.775C61.0092 29.5181 60.905 29.6799 61.3566 29.3307C61.8082 28.9815 61.6331 29.0489 62.0268 28.6455L49.3534 11.5946C48.8564 11.8515 48.9597 11.6932 48.5081 12.0424C48.0565 12.3916 48.2316 12.3242 47.8388 12.7242Z" fill="#F8EEC8"/>
</g>
</g>
<path d="M18.8539 61.8448C29.2671 64.2494 39.6619 57.74 42.0714 47.3057C44.4809 36.8714 37.9926 26.4633 27.5794 24.0587C17.1662 21.6541 6.77133 28.1635 4.36184 38.5978C1.95235 49.0321 8.44065 59.4402 18.8539 61.8448Z" fill="#77A7AA"/>
<g style="mix-blend-mode:multiply" opacity="0.26">
<g style="mix-blend-mode:multiply" opacity="0.26">
<path d="M39.5876 32.5038C41.6764 36.9714 41.9851 42.0704 40.4506 46.7612C38.9161 51.4521 35.6541 55.3816 31.3295 57.7487C27.0049 60.1157 21.9435 60.742 17.1771 59.4998C12.4107 58.2577 8.29834 55.2406 5.67835 51.0638C6.79827 53.459 8.396 55.5988 10.3731 57.3513C12.3503 59.1038 14.6649 60.4319 17.1746 61.2538C19.6843 62.0758 22.3358 62.3742 24.9659 62.1307C27.596 61.8871 30.1489 61.1068 32.4675 59.8377C34.7861 58.5687 36.8212 56.8378 38.4475 54.7516C40.0739 52.6654 41.257 50.2682 41.924 47.7075C42.5911 45.1468 42.7279 42.4768 42.3261 39.8621C41.9242 37.2474 40.9923 34.7432 39.5876 32.5038Z" fill="#9FB7B2"/>
</g>
</g>
<g style="mix-blend-mode:multiply" opacity="0.6">
<g style="mix-blend-mode:multiply" opacity="0.6">
<path d="M31.9296 25.3162L8.52646 55.55C9.21636 56.2891 8.88184 56.1635 9.70238 56.8028C10.5229 57.442 10.3204 57.1462 11.2058 57.6332L34.6125 27.4002C33.9226 26.6611 34.2571 26.7866 33.419 26.1433C32.5808 25.5 32.815 25.8032 31.9296 25.3162Z" fill="#6A9A9B"/>
</g>
</g>
</g>
<defs>
<clipPath id="clip0">
<rect width="56" height="59" fill="white" transform="translate(13.2749) rotate(13.0028)"/>
</clipPath>
</defs>
</svg>

<svg width="68" height="71" viewBox="0 0 68 71" fill="none" xmlns="http://www.w3.org/2000/svg"><g clip-path="url(#clip0)"><path d="M52.509 31.183c5.788 1.337 11.566-2.282 12.905-8.081 1.34-5.8-2.267-11.586-8.055-12.922-5.788-1.337-11.566 2.281-12.906 8.081-1.339 5.8 2.268 11.585 8.056 12.922z" fill="#F3C74A"/><path d="M64.034 14.877a10.794 10.794 0 0 1-4.612 13.998 10.743 10.743 0 0 1-14.239-3.688 10.761 10.761 0 0 0 6.388 5.696 10.737 10.737 0 0 0 8.52-.778 10.777 10.777 0 0 0 5.265-6.761 10.799 10.799 0 0 0-1.322-8.467z" fill="#F3C74A" opacity=".53"/><path d="M47.839 12.724l12.673 17.051c.497-.257.393-.095.845-.444.451-.35.276-.282.67-.686l-12.674-17.05c-.497.256-.393.098-.845.447-.452.35-.276.282-.67.682z" fill="#F8EEC8" opacity=".58"/><path d="M18.854 61.845c10.413 2.404 20.808-4.105 23.217-14.54 2.41-10.434-4.078-20.842-14.492-23.246-10.413-2.405-20.808 4.104-23.217 14.539C1.952 49.032 8.44 59.44 18.854 61.845z" fill="#77A7AA"/><path d="M39.588 32.504a19.414 19.414 0 0 1-8.259 25.245 19.324 19.324 0 0 1-14.152 1.75 19.328 19.328 0 0 1-11.499-8.435 19.358 19.358 0 0 0 4.695 6.287 19.318 19.318 0 0 0 22.095 2.487c2.318-1.27 4.353-3 5.98-5.086a19.418 19.418 0 0 0 1.14-22.248z" fill="#9FB7B2" opacity=".26"/><path d="M31.93 25.316L8.526 55.55c.69.74.356.614 1.176 1.253.82.639.618.343 1.504.83L34.612 27.4c-.69-.739-.355-.613-1.193-1.257-.838-.643-.604-.34-1.49-.827z" fill="#6A9A9B" opacity=".6"/></g><defs><clipPath id="clip0"><path fill="#fff" transform="rotate(13.003 6.637 58.243)" d="M0 0h56v59H0z"/></clipPath></defs></svg>
